X: 15498
T: Glenlyon
R: reel
M: 4/4
K: Dmajor
AAdG ~A3g|fAeA dBGB|AAdG ~A3g|fAeA d3e:|
|:fdgf ecce|fdge fdge|fdgf ecce|afge ~d3e:|

